svg/color/etcbull.svg

<?xml version="1.0" encoding="UTF-8" ?>
<!DOCTYPE svg PUBLIC "-//W3C//DTD SVG 1.1//EN" "http://www.w3.org/Graphics/SVG/1.1/DTD/svg11.dtd">
<svg width="250pt" height="248pt" viewBox="0 0 250 248" version="1.1" xmlns="http://www.w3.org/2000/svg">
<g id="#ffffffff">
<path fill="#ffffff" opacity="1.00" d=" M 0.00 0.00 L 250.00 0.00 L 250.00 248.00 L 0.00 248.00 L 0.00 0.00 M 78.45 21.46 C 78.37 38.13 78.54 54.79 78.37 71.45 C 82.10 72.85 86.11 72.31 90.00 72.37 C 138.84 72.34 187.67 72.41 236.50 72.34 C 236.91 55.37 236.62 38.39 236.66 21.42 C 183.92 21.39 131.19 21.30 78.45 21.46 M 78.81 91.52 C 78.07 98.32 78.55 105.17 78.45 112.00 C 78.54 122.13 78.23 132.26 78.60 142.38 C 83.39 142.66 88.20 142.66 93.00 142.60 C 121.33 142.59 149.67 142.60 178.00 142.60 C 182.74 142.66 187.48 142.67 192.22 142.36 C 192.55 131.91 192.26 121.45 192.35 111.00 C 192.24 104.51 192.78 97.99 191.85 91.54 C 154.17 91.45 116.49 91.49 78.81 91.52 M 15.72 91.66 C 15.47 108.56 15.45 125.47 15.73 142.37 C 32.65 142.80 49.59 142.65 66.51 142.45 C 66.77 125.51 66.78 108.55 66.51 91.61 C 49.58 91.46 32.64 91.36 15.72 91.66 M 78.52 162.40 C 78.01 169.92 78.41 177.46 78.33 185.00 C 78.49 194.19 77.94 203.39 78.56 212.57 C 87.61 214.28 96.86 213.08 106.00 213.39 C 113.83 213.19 121.74 214.14 129.48 212.64 C 130.10 204.44 129.60 196.21 129.72 188.00 C 129.59 179.46 130.09 170.91 129.50 162.38 C 121.06 161.10 112.50 161.99 104.00 161.77 C 95.51 161.98 86.96 161.10 78.52 162.40 Z" />
</g>
<g id="#02a5c2ff">
<path fill="#02a5c2" opacity="1.00" d=" M 78.45 21.46 C 131.19 21.30 183.92 21.39 236.66 21.42 C 236.62 38.39 236.91 55.37 236.50 72.34 C 187.67 72.41 138.84 72.34 90.00 72.37 C 86.11 72.31 82.10 72.85 78.37 71.45 C 78.54 54.79 78.37 38.13 78.45 21.46 Z" />
</g>
<g id="#5fcadeff">
<path fill="#5fcade" opacity="1.00" d=" M 78.81 91.52 C 116.49 91.49 154.17 91.45 191.85 91.54 C 192.78 97.99 192.24 104.51 192.35 111.00 C 192.26 121.45 192.55 131.91 192.22 142.36 C 187.48 142.67 182.74 142.66 178.00 142.60 C 149.67 142.60 121.33 142.59 93.00 142.60 C 88.20 142.66 83.39 142.66 78.60 142.38 C 78.23 132.26 78.54 122.13 78.45 112.00 C 78.55 105.17 78.07 98.32 78.81 91.52 Z" />
<path fill="#5fcade" opacity="1.00" d=" M 15.72 91.66 C 32.64 91.36 49.58 91.46 66.51 91.61 C 66.78 108.55 66.77 125.51 66.51 142.45 C 49.59 142.65 32.65 142.80 15.73 142.37 C 15.45 125.47 15.47 108.56 15.72 91.66 Z" />
</g>
<g id="#abebf4ff">
<path fill="#abebf4" opacity="1.00" d=" M 78.52 162.40 C 86.96 161.10 95.51 161.98 104.00 161.77 C 112.50 161.99 121.06 161.10 129.50 162.38 C 130.09 170.91 129.59 179.46 129.72 188.00 C 129.60 196.21 130.10 204.44 129.48 212.64 C 121.74 214.14 113.83 213.19 106.00 213.39 C 96.86 213.08 87.61 214.28 78.56 212.57 C 77.94 203.39 78.49 194.19 78.33 185.00 C 78.41 177.46 78.01 169.92 78.52 162.40 Z" />
</g>
</svg>

<?xml version="1.0" encoding="utf-8"?>
<!-- Generator: Adobe Illustrator 26.0.3, SVG Export Plug-In . SVG Version: 6.00 Build 0)  -->
<svg version="1.1" id="Layer_1" xmlns="http://www.w3.org/2000/svg" xmlns:xlink="http://www.w3.org/1999/xlink" x="0px" y="0px"
	 viewBox="0 0 250 248" style="enable-background:new 0 0 250 248;" xml:space="preserve">
<style type="text/css">
	.st0{fill:#02A5C2;}
	.st1{fill:#5FCADE;}
	.st2{fill:#ABEBF4;}
</style>
<g id="_x23_02a5c2ff">
	<path class="st0" d="M78.4,21.5c52.7-0.2,105.5-0.1,158.2,0c0,17,0.2,33.9-0.2,50.9c-48.8,0.1-97.7,0-146.5,0
		c-3.9-0.1-7.9,0.5-11.6-0.9C78.5,54.8,78.4,38.1,78.4,21.5z"/>
</g>
<g id="_x23_5fcadeff">
	<path class="st1" d="M78.8,91.5c37.7,0,75.4-0.1,113,0c0.9,6.4,0.4,13,0.5,19.5c-0.1,10.4,0.2,20.9-0.1,31.4
		c-4.7,0.3-9.5,0.3-14.2,0.2c-28.3,0-56.7,0-85,0c-4.8,0.1-9.6,0.1-14.4-0.2c-0.4-10.1-0.1-20.3-0.2-30.4
		C78.6,105.2,78.1,98.3,78.8,91.5z"/>
	<path class="st1" d="M15.7,91.7c16.9-0.3,33.9-0.2,50.8-0.1c0.3,16.9,0.3,33.9,0,50.8c-16.9,0.2-33.9,0.4-50.8-0.1
		C15.4,125.5,15.5,108.6,15.7,91.7z"/>
</g>
<g id="_x23_abebf4ff">
	<path class="st2" d="M78.5,162.4c8.4-1.3,17-0.4,25.5-0.6c8.5,0.2,17.1-0.7,25.5,0.6c0.6,8.5,0.1,17.1,0.2,25.6
		c-0.1,8.2,0.4,16.4-0.2,24.6c-7.7,1.5-15.6,0.6-23.5,0.8c-9.1-0.3-18.4,0.9-27.4-0.8c-0.6-9.2-0.1-18.4-0.2-27.6
		C78.4,177.5,78,169.9,78.5,162.4z"/>
</g>
</svg>
